src/assets/media/icon_note_grey_circle.svg

<svg width="14" height="14" viewBox="0 0 14 14" fill="none" xmlns="http://www.w3.org/2000/svg">
    <path d="M6.9987 13.3812C3.3187 13.3812 0.332031 10.3946 0.332031 6.71456C0.332031 3.03456 3.3187 0.0478935 6.9987 0.0478935C10.6787 0.0478935 13.6654 3.03456 13.6654 6.71456C13.6654 10.3946 10.6787 13.3812 6.9987 13.3812ZM7.66536 3.38123H6.33203V4.71456H7.66536V3.38123ZM7.66536 6.04789H6.33203V10.0479H7.66536V6.04789Z"
          fill="#9BA4B7"/>
</svg>

<svg width="14" height="14" fill="none" xmlns="http://www.w3.org/2000/svg">
    <path d="M6.999 13.381A6.67 6.67 0 0 1 .332 6.715 6.67 6.67 0 0 1 6.999.048a6.67 6.67 0 0 1 6.666 6.667A6.67 6.67 0 0 1 7 13.38zm.666-10H6.332v1.334h1.333V3.38zm0 2.667H6.332v4h1.333v-4z"
          fill="#9BA4B7"/>
</svg>
